X:668
T:She's Ower Young to Marry Yet
S:Colin Hume's website,  colinhume.com  - chords can also be printed below the stave.
Q:1/4=120
M:4/4
L:1/8
K:D
|:D | "D"F<A A>B "Bm"d>e f>e | "G"d>B A>B "A7"e>f eE | "D"F<A A>B "Bm"d>e f>e | "D"f<a "A7"e>f "D"d<D D :|
|: a | "D"f>d a>d "Bm"f>g a>b | "D"f<d a<d "A7"f<e e>a | "D"f>d a>d "Bm"f>g a>b | "Em"f<d "A7"e>c "D"d<D D :|

